X:302
T:Brännvinspolskan.
R:polska
S:Efter »Florsen» i Burs.
N:Då denna polska speltes upp, måste brännvinsflaskan fram ock gå laget runt.
O:Gotland, Burs
M:3/4
L:1/16
K:C
c3G E2EF D2DE|C2EC G,2Bd c4|Lg4 {^fg} a2g2=f2e2|
[1 d2dc BcAB G2AB:|2gfedd4 c4|:c3c' c'2c'2 c'2c'2|
c'3b b2b2 b2b2|b3a a2a2 a2a2|a3g g3f f2e2|
g2^fg .a2.g2.=f2.e2|gfed d4 c4:|

